dist/svgs/carbon-icons/svg/header-user.svg

<?xml version="1.0" encoding="UTF-8"?>
<svg width="20px" height="20px" viewBox="0 0 20 20" version="1.1" xmlns="http://www.w3.org/2000/svg" xmlns:xlink="http://www.w3.org/1999/xlink">
    <!-- Generator: Sketch 50 (54983) - http://www.bohemiancoding.com/sketch -->
    <title>User - 1px</title>
    <desc>Created with Sketch.</desc>
    <defs></defs>
    <g id="User---1px" stroke="none" stroke-width="1" fill="none" fill-rule="evenodd">
        <path d="M10,9 C11.6568542,9 13,7.65685425 13,6 C13,4.34314575 11.6568542,3 10,3 C8.34314575,3 7,4.34314575 7,6 C7,7.65685425 8.34314575,9 10,9 Z M10,10 C7.790861,10 6,8.209139 6,6 C6,3.790861 7.790861,2 10,2 C12.209139,2 14,3.790861 14,6 C14,8.209139 12.209139,10 10,10 Z" id="Oval-5" fill="#000000" fill-rule="nonzero"></path>
        <path d="M5,18 L4,18 L4,15.5192712 C4,13.0339898 6.01471863,11.0192712 8.5,11.0192712 C8.50720932,11.019277 9.51441862,11.0241006 11.5216279,11.0337419 C13.9984386,11.0456461 16,13.0568506 16,15.53369 L16,17.9998742 L15,17.9998742 L15,15.53369 C15,13.6072594 13.44323,12.0429892 11.5168217,12.0337304 L8.51682169,12.0193116 C6.56700338,12.0192712 5,13.5862746 5,15.5192712 L5,18 Z" id="Path-4" fill="#000000" fill-rule="nonzero"></path>
    </g>
</svg>

<svg xmlns="http://www.w3.org/2000/svg" viewBox="0 0 20 20"><path d="M10 9a3 3 0 100-6 3 3 0 000 6zm0 1a4 4 0 110-8 4 4 0 010 8zm-5 8H4v-2.48a4.5 4.5 0 014.5-4.5l3.022.014a4.5 4.5 0 014.478 4.5V18h-1v-2.466a3.5 3.5 0 00-3.483-3.5l-3-.015A3.504 3.504 0 005 15.52V18z"/></svg>
